public/flags/JO.svg

<svg fill="none" height="53" viewBox="0 0 63 53" width="63" xmlns="http://www.w3.org/2000/svg" xmlns:xlink="http://www.w3.org/1999/xlink"><mask id="a" height="43" maskUnits="userSpaceOnUse" width="59" x="4" y="3"><rect fill="#fff" height="41.4393" rx="3.7125" stroke="#fff" stroke-width="1.06071" width="57.9393" x="4.53036" y="3.53036"/></mask><rect fill="#fff" height="41.4393" rx="3.7125" stroke="#f5f5f5" stroke-width="1.06071" width="57.9393" x="4.53036" y="3.53036"/><g clip-rule="evenodd" fill-rule="evenodd" mask="url(#a)"><path d="m4 45.5h59v-14.1667h-59z" fill="#199e56"/><path d="m4 17.1667h59v-14.1667h-59z" fill="#262626"/><path d="m4 3 28.0952 21.25-28.0952 21.25z" fill="#e6223a"/><path d="m13.8334 26.375-1.8285 1.7041.1811-2.5042-2.4612-.3792 2.0543-1.4186-1.2405-2.1769 2.3806.7352.9142-2.3354.9143 2.3354 2.3806-.7352-1.2406 2.1769 2.0544 1.4186-2.4612.3792.181 2.5042z" fill="#fff"/></g></svg>

<svg width="63" height="53" viewBox="0 0 63 53" fill="none" xmlns="http://www.w3.org/2000/svg">
<rect x="4.53036" y="3.53036" width="57.9393" height="41.4393" rx="3.7125" fill="white" stroke="#F5F5F5" stroke-width="1.06071"/>
<mask id="mask0" mask-type="alpha" maskUnits="userSpaceOnUse" x="4" y="3" width="59" height="43">
<rect x="4.53036" y="3.53036" width="57.9393" height="41.4393" rx="3.7125" fill="white" stroke="white" stroke-width="1.06071"/>
</mask>
<g mask="url(#mask0)">
<path fill-rule="evenodd" clip-rule="evenodd" d="M4 45.5H63V31.3333H4V45.5Z" fill="#199E56"/>
<path fill-rule="evenodd" clip-rule="evenodd" d="M4 17.1667H63V3H4V17.1667Z" fill="#262626"/>
<path fill-rule="evenodd" clip-rule="evenodd" d="M4 3L32.0952 24.25L4 45.5V3Z" fill="#E6223A"/>
<path fill-rule="evenodd" clip-rule="evenodd" d="M13.8334 26.375L12.0049 28.0791L12.186 25.5749L9.7248 25.1957L11.7791 23.7771L10.5386 21.6002L12.9192 22.3354L13.8334 20L14.7477 22.3354L17.1283 21.6002L15.8877 23.7771L17.9421 25.1957L15.4809 25.5749L15.6619 28.0791L13.8334 26.375Z" fill="white"/>
</g>
</svg>
